X:298
T: RUHIG IST DES TODES SCHLUMMER
N: B0775
O: Europa, Mitteleuropa, Deutschland
R: Trost - Lied, Tod, religioes
M: 3/4
L: 1/8
K: F
 | A4G2 | G2F2F2 | c4B2 | B2A2A2
f2e2d2 | c2B2Ac | c2B2A2 | G6
A4G2 | G2F2F2 | c4B2 | B2A2A2
f2e2d2 | c2B2Ac | c2B2A2 | G6
G4A2 | B2A2G2 | A4c2 | f4z2
c4e2 | g2e2cB | A4c2 | f4z2
d4e2 | f4B2 | A4G2 | F4z2

